!!!COM: Palestrina, Giovanni Perluigi da
!!!OPR: In semidupl. maj. (I)
!!!OTL: Sanctus
**kern	**kern	**kern	**kern	**kern
*Ibass	*Itenor	*Itenor	*Icalto	*Icant
!Bassus	!Tenor 2	!Tenor 1	!Altus	!Cantus
*clefF4	*clefGv2	*clefGv2	*clefG2	*clefG2
*k[b-]	*k[b-]	*k[b-]	*k[b-]	*k[b-]
*F:ion	*F:ion	*F:ion	*F:ion	*F:ion
*M4/2	*M4/2	*M4/2	*M4/2	*M4/2
=1	=1	=1	=1	=1
0r	0r	0r	1r	0cc
.	.	.	[1f	.
=2	=2	=2	=2	=2
0r	0r	0r	1f]	1a
.	.	.	1d	1f
=3	=3	=3	=3	=3
0r	0r	0r	2B-	1g
.	.	.	2.c	.
.	.	.	.	[1a
.	.	.	4B-	.
.	.	.	4A	.
.	.	.	4G	.
=4	=4	=4	=4	=4
0r	0r	1r	2F	2a]
.	.	.	1f	4g
.	.	.	.	4f
.	.	[1c	.	1g
.	.	.	2e	.
=5	=5	=5	=5	=5
0F	0r	1c]	2.f	2f
.	.	.	.	1cc
.	.	.	8e	.
.	.	.	8d	.
.	.	1A	1c	.
.	.	.	.	[2a
=6	=6	=6	=6	=6
1D	0r	1F	0d	4a]
.	.	.	.	4g
.	.	.	.	4f
.	.	.	.	4e
1BB-	.	1G	.	2d
.	.	.	.	2g
=7	=7	=7	=7	=7
1C	0r	1.A	1c	1e
1D	.	.	2A	2f
.	.	4G	2B-	2d
.	.	4F	.	.
=8	=8	=8	=8	=8
0C	0c	0G	1c	2e
.	.	.	.	1f
.	.	.	1g	.
.	.	.	.	2e
=9	=9	=9	=9	=9
1F	1A	2F	2c	1f
.	.	2.A	2.f	.
1D	1F	.	.	1a
.	.	4G	4e	.
.	.	[2F	[2d	.
=10	=10	=10	=10	=10
2BB-	1G	2F]	2d]	2b-
2C	.	2E	2.c	2g
[1FF	[1A	1F	.	4f
.	.	.	4B-	4g
.	.	.	4A	4a
.	.	.	4G	4b-
=11	=11	=11	=11	=11
1FF]	2A]	[0C	2F	0cc
.	4G	.	1f	.
.	4F	.	.	.
1C	1G	.	.	.
.	.	.	2e	.
=12	=12	=12	=12	=12
[0FF	[0F	1C_	[0f	[0a
.	.	1C_	.	.
=13	=13	=13	=13	=13
0FF]	0F]	0C]	0f]	0a]
=14	=14	=14	=14	=14
1C	1r	0r	0r	0r
1D	1F	.	.	.
=15	=15	=15	=15	=15
1E	1G	0r	0r	0r
2C	1A	.	.	.
4D	.	.	.	.
4C	.	.	.	.
=16	=16	=16	=16	=16
4D	1F	0r	0r	0r
4E	.	.	.	.
1F	.	.	.	.
.	1G	.	.	.
2E	.	.	.	.
=17	=17	=17	=17	=17
4A	2.F	0r	1c	1r
4G	.	.	.	.
4F	.	.	.	.
4E	4G	.	.	.
4D	2A	.	1d	1f
4C	.	.	.	.
2D	2F	.	.	.
=18	=18	=18	=18	=18
1C	2.c	0r	1e	1g
.	4B-	.	.	.
1r	4A	.	2c	1a
.	4G	.	.	.
.	4F	.	4d	.
.	4E	.	4c	.
=19	=19	=19	=19	=19
1r	1D	0r	4d	1f
.	.	.	4e	.
.	.	.	1f	.
2r	1C	.	.	1g
2C	.	.	2e	.
=20	=20	=20	=20	=20
2D	1r	1F	1f	2f
1F	.	.	.	2a
.	1C	1G	1r	1g
2E	.	.	.	.
=21	=21	=21	=21	=21
2.F	1c	1A	2r	1.f
.	.	.	2c	.
4E	.	.	.	.
1D	2B-	1F	2d	.
.	2A	.	[2f	2d
=22	=22	=22	=22	=22
1C	1.c	1G	2f]	2r
.	.	.	2e	2g
1AA	.	1F	1f	2a
.	4B-	.	.	[2cc
.	4A	.	.	.
=23	=23	=23	=23	=23
1BB-	1d	1F	2r	4cc]
.	.	.	.	4b-
.	.	.	2.F	1b-
[1FF	1c	1r	.	.
.	.	.	4G	.
.	.	.	4A	4a
.	.	.	4B-	4g
=24	=24	=24	=24	=24
0FF]	2.F	2r	2c	1a
.	.	2.F	2d	.
.	4G	.	.	.
.	1A	.	2.c	1f
.	.	4G	.	.
.	.	4A	.	.
.	.	4B-	4d	.
=25	=25	=25	=25	=25
0r	1r	2c	2e	1a
.	.	2d	2f	.
.	2r	1c	2e	[1cc
.	[2F	.	[2f	.
=26	=26	=26	=26	=26
0r	4F]	1r	2f]	2cc]
.	4G	.	.	.
.	4A	.	4e	2cc
.	4B-	.	4d	.
.	2c	2r	2e	1cc
.	2A	2c	2f	.
=27	=27	=27	=27	=27
0r	1G	2d	2.g	1b-
.	.	2B-	.	.
.	.	.	4f	.
.	2A	2c	2e	1a
.	2F	[2d	2f	.
=28	=28	=28	=28	=28
0r	2G	2d]	2B-	2g
.	2A	1c	2c	2f
.	1G	.	1d	[1g
.	.	2B	.	.
=29	=29	=29	=29	=29
1r	1C	1c	1e	1g]
2r	1r	2.F	2.f	1a
[2FF	.	.	.	.
.	.	4G	8e	.
.	.	.	8d	.
=30	=30	=30	=30	=30
4FF]	1F	4A	1c	2.a
4GG	.	4B-	.	.
4AA	.	1c	.	.
4BB-	.	.	.	8g
.	.	.	.	8f
2C	1A	.	1r	2e
2D	.	2F	.	[2f
=31	=31	=31	=31	=31
1C	1.c	2G	1r	2f]
.	.	2.C	.	4e
.	.	.	.	4d
2r	.	.	1g	1e
.	.	4D	.	.
[2C	2c	4E	.	.
.	.	4F	.	.
=32	=32	=32	=32	=32
2C]	1c	2G	2e	0r
2FF	.	2A	2f	.
2GG	1B-	2G	1d	.
2BB-	.	[2F	.	.
=33	=33	=33	=33	=33
1FF	1A	4F]	2.c	2r
.	.	4G	.	.
.	.	4A	.	2.c
.	.	4F	4d	.
[1C	[1c	[1G	4e	.
.	.	.	4f	4d
.	.	.	2g	4e
.	.	.	.	4f
=34	=34	=34	=34	=34
2C]	1c]	2G]	2e	2g
2FF	.	2F	2f	2a
4GG	1B-	1D	2r	2g
4AA	.	.	.	.
4BB-	.	.	[2F	2f
4C	.	.	.	.
=35	=35	=35	=35	=35
2D	1A	1F	4F]	1f
.	.	.	4G	.
1F	.	.	4A	.
.	.	.	4B-	.
.	1G	1C	1c	2r
2E	.	.	.	2cc
=36	=36	=36	=36	=36
2D	1F	2r	2d	2b-
2F	.	1F	2c	2a
1C	1G	.	[1c	1g
.	.	2E	.	.
=37	=37	=37	=37	=37
1FF	1A	2.F	2c]	2.f
.	.	.	2.A	.
.	.	4G	.	4e
2r	2.F	2A	.	2d
.	.	.	4B-	.
[2F	.	2A	2c	2c
.	4E	.	.	.
=38	=38	=38	=38	=38
2F]	2D	2F	2d	2f
2E	2C	4c	2G	2g
.	.	4B-	.	.
2F	2F	4A	1c	2a
.	.	8G	.	.
.	.	8F	.	.
2C	2G	[2E	.	[2g
=39	=39	=39	=39	=39
2.AA	1A	4E]	[0c	4g]
.	.	4C	.	4f
.	.	1c	.	1f
4BB-	.	.	.	.
1C	1G	.	.	.
.	.	2G	.	2e
=40	=40	=40	=40	=40
[0FF	[0F	[0A	1c_	[0f
.	.	.	1c_	.
=41	=41	=41	=41	=41
0FF]	0F]	0A]	0c]	0f]
*	*	*	*	*-
!! Pleni
*Ibass	*Itenor	*Itenor	*Icalto
!Bassus	!Tenor 2	!Tenor 1	!Altus
*clefF4	*clefGv2	*clefGv2	*clefG2
*k[b-]	*k[b-]	*k[b-]	*k[b-]
*F:ion	*F:ion	*F:ion	*F:ion
*M4/2	*M4/2	*M4/2	*M4/2
=42	=42	=42	=42
1C	1r	0r	0r
1D	1F	.	.
=43	=43	=43	=43
1F	1A	0r	0r
2F	1c	.	.
[2F	.	.	.
=44	=44	=44	=44
2F]	1c	0r	0r
4E	.	.	.
4D	.	.	.
2E	[1c	.	.
4C	.	.	.
4D	.	.	.
=45	=45	=45	=45
4E	2c]	0r	0r
4F	.	.	.
2.G	2B-	.	.
.	1A	.	.
4F	.	.	.
[2F	.	.	.
=46	=46	=46	=46
2F]	1G	0r	1r
2E	.	.	.
1F	1A	.	1c
=47	=47	=47	=47
1BB-	1B-	1F	1d
1r	1F	1A	1f
=48	=48	=48	=48
1FF	0A	1c	2f
.	.	.	1f
1AA	.	1c	.
.	.	.	4e
.	.	.	4d
=49	=49	=49	=49
2.C	1G	1.c	2e
.	.	.	4c
4BB-	.	.	4d
2AA	2A	.	4e
.	.	.	4f
2GG	[2d	2B-	[2g
=50	=50	=50	=50
2D	2d]	1A	4g]
.	.	.	4f
2F	4c	.	1f
.	4B-	.	.
1C	1c	1G	.
.	.	.	2e
=51	=51	=51	=51
2r	4F	0c	2f
.	4G	.	.
2.FF	4A	.	4F
.	4B-	.	4G
.	2c	.	4A
4GG	.	.	4B-
4AA	[2C	.	4c
4BB-	.	.	4d
=52	=52	=52	=52
2.C	4C]	0c	4e
.	4D	.	4f
.	4E	.	1g
4D	4F	.	.
2E	2G	.	.
2F	[2A	.	2f
=53	=53	=53	=53
1A	4A]	1c	2.e
.	4B-	.	.
.	1c	.	.
.	.	.	4f
1G	.	1d	1g
.	2B	.	.
=54	=54	=54	=54
1C	1c	2.c	2e
.	.	.	1g
.	.	4B-	.
1r	2r	1A	.
.	[2c	.	2f
=55	=55	=55	=55
0r	2c]	1G	2e
.	2B-	.	2d
.	1A	2r	2e
.	.	[2c	4d
.	.	.	4c
=56	=56	=56	=56
1r	2.G	2c]	1d
.	.	2B-	.
.	4D	.	.
2r	1F	1A	[1c
[2F	.	.	.
=57	=57	=57	=57
2F]	1C	1G	1c]
2E-	.	.	.
2.D	1r	1A	2r
.	.	.	[2f
4C	.	.	.
=58	=58	=58	=58
2BB-	2r	1G	2f]
2C	2c	.	2e-
4D	2B-	[1F	1d
4C	.	.	.
4D	4A	.	.
4E	4G	.	.
=59	=59	=59	=59
4F	4A	1F]	1c
4G	4B-	.	.
2A	1c	.	.
2F	.	1r	1d
2G	[2B-	.	.
=60	=60	=60	=60
2E	2B-]	1r	1c
2F	2A	.	.
1BB-	2B-	2r	1B-
.	[2B-	[2d	.
=61	=61	=61	=61
1F	2B-]	2d]	2r
.	2A	2c	1f
1r	1G	[1B-	.
.	.	.	2e-
=62	=62	=62	=62
0r	1F	2B-]	2d
.	.	2A	2.c
.	1G	1B-	.
.	.	.	4B-
.	.	.	[2B-
=63	=63	=63	=63
2r	1F	1c	2B-]
1F	.	.	2A
.	1C	1c	2G
2E-	.	.	[2g
=64	=64	=64	=64
1D	1r	2B-	2g]
.	.	2.A	2f
1C	1c	.	2e
.	.	4G	.
.	.	2E	[2g
=65	=65	=65	=65
1D	2B-	1F	4g]
.	.	.	4f
.	2A	.	1f
1C	1c	1G	.
.	.	.	2e
=66	=66	=66	=66
1.BB-	1.d	0B-	[0f
4AA	4c	.	.
4GG	4B-	.	.
=67	=67	=67	=67
[0FF	[0c	[0A	1f_
.	.	.	1f_
=68	=68	=68	=68
0FF]	0c]	0A]	0f]
*-	*-	*-	*-
!! Hosanna
**kern	**kern	**kern	**kern	**kern
*Ibass	*Itenor	*Itenor	*Icalto	*Icant
!Bassus	!Tenor 2	!Tenor 1	!Altus	!Cantus
*clefF4	*clefGv2	*clefGv2	*clefG2	*clefG2
*k[b-]	*k[b-]	*k[b-]	*k[b-]	*k[b-]
*F:ion	*F:ion	*F:ion	*F:ion	*F:ion
*M4/2	*M4/2	*M4/2	*M4/2	*M4/2
=69	=69	=69	=69	=69
0r	0r	0r	1B-	1r
.	.	.	2G	2r
.	.	.	2F	2f
=70	=70	=70	=70	=70
0r	0r	2r	2B-	2d
.	.	2F	2c	2c
.	.	2D	2d	2f
.	.	2C	2e	2g
=71	=71	=71	=71	=71
0r	0r	2F	2f	2a
.	.	2G	4e	2b-
.	.	.	4d	.
.	.	1A	1c	4cc
.	.	.	.	4b-
.	.	.	.	4a
.	.	.	.	4g
=72	=72	=72	=72	=72
1BB-	0r	1.B-	1d	4f
.	.	.	.	4e
.	.	.	.	4d
.	.	.	.	4c
2GG	.	.	2B-	4d
.	.	.	.	4e
2FF	.	2A	2c	[2f
=73	=73	=73	=73	=73
2BB-	0r	1G	2d	2f]
2C	.	.	4c	2e
.	.	.	4B-	.
2.D	.	1F	[1A	2f
.	.	.	.	2f
4C	.	.	.	.
=74	=74	=74	=74	=74
4D	1F	2r	1A]	2d
4E	.	.	.	.
1F	.	2A	.	2c
.	2D	2F	2r	2f
2E	2C	2c	2c	2g
=75	=75	=75	=75	=75
2F	2F	2.c	2A	2a
2C	2G	.	2G	2.cc
.	.	4B-	.	.
4FF	2A	4A	2.c	.
4GG	.	4G	.	4b-
4AA	[2c	2F	.	2a
4BB-	.	.	4d	.
=76	=76	=76	=76	=76
2C	4c]	2E	2e	2g
.	4B-	.	.	.
2FF	2A	2C	2f	2f
2C	2G	2C	2e	2g
2FF	2F	[2c	[2f	2a
=77	=77	=77	=77	=77
0C	0G	2c]	2f]	0g
.	.	2c	4e	.
.	.	.	4d	.
.	.	1c	1e	.
=78	=78	=78	=78	=78
[0FF	[0F	[0c	[0f	[0a
=79	=79	=79	=79	=79
0FF]	0F]	0c]	0f]	0a]
==	==	==	==	==
*-	*-	*-	*-	*-
!!!CDT: 1525/^1526/-1594/2/2
!!!OCY: Italia
!!!AGN: Mass (Paraphrase)
!!!AST: renaissance, vocal
!!!ASW: Gregorian Mass
!!!PWK: Masses, Book Mantuan II
!!!RNB: Cadence finals: C
!!!YOR: Le Opere Complete, v. 19, p. 129
!!!YOO: Rome, Italy: Fratelli Scalera
!!!END: 1992//
!!!EED: John Miller
!!!YEC: Copyright 2000, John Miller
!!!YEN: United States of America
!!!YEM: Rights to all derivative electronic formats reserved.
!!!YEM: Refer to licensing agreement for further details.
!!!YEM: This file must be accompanied by the licensing agreement.
!!!YEM: A copy of the licensing agreement may be found at http://www.music-cog.ohio-state.edu/HumdrumDatabases/Palestrina/license.txt
!!!EMD: converted to Humdrum by Bret Aarden
